Sites/Bioaqua/app/img/dest/steps/image(3).svg

<svg width="85" height="118" viewBox="0 0 85 118" fill="none" xmlns="http://www.w3.org/2000/svg">
<path d="M12.1268 73.1034C5.30286 70.3503 4.24491 56.6502 6.22633 56.3453M12.1268 73.1034C10.9383 67.5063 10.6283 61.8104 11.1473 56.3453M12.1268 73.1034C14.4481 84.0358 20.121 94.591 29.514 102.312M6.22633 56.3453C6.22633 56.3453 4.63123 48.9676 6.2263 33.685C6.49162 31.143 7.21886 28.7467 8.32824 26.518M6.22633 56.3453H11.1473M78.6411 26.518C74.547 17.8518 68.4603 12.7763 59.8196 10.2956C55.2195 8.97496 49.8955 8.38976 43.7629 8.38976C42.2753 8.38976 40.7831 8.46087 39.2968 8.60026M11.1473 56.3453C12.7542 39.4249 22.3078 24.7175 38.3398 22.0096M11.1473 56.3453C15.3211 50.0188 18.7346 49.7675 25.2333 48.6514C31.732 47.5353 38.3398 41.4844 38.3398 41.4844M39.2968 8.60026C33.5547 12.9218 35.0434 19.6672 38.3398 22.0096M39.2968 8.60026C35.4398 8.96197 31.6222 9.78346 28.0253 11.0151C27.0782 11.3394 32.66 9.52702 31.7469 9.90726M38.3398 22.0096C40.0725 21.7169 41.8808 21.5644 43.7629 21.5644C61.4469 21.5644 72.6146 35.0278 75.7285 51.7079M43.7629 14.0812V17.4539M80.1297 29.9961L81.4058 33.0527M82.0438 36.2146C82.0438 36.2146 82.0438 49.1261 82.0438 57.3993M82.0438 57.3993C85.584 62.3275 78.3815 77.1225 75.2609 73.7358M82.0438 57.3993C79.8664 57.3993 76.4681 57.3993 76.4681 57.3993M75.2609 73.7358C75.3082 73.5252 75.3542 73.3144 75.399 73.1034C76.5113 67.8652 76.8541 62.5404 76.4681 57.3993M75.2609 73.7358C72.8573 84.4421 67.2236 94.74 58.0118 102.312M76.4681 57.3993C76.3233 55.4716 76.0761 53.5697 75.7285 51.7079M43.7629 26.518C44.2266 28.6093 44.3993 30.2725 44.3226 31.6825M40.4666 39.3765C42.7051 36.7582 44.1493 34.8649 44.3226 31.6825M44.3226 31.6825C60.3194 33.33 65.8286 39.9757 75.7285 51.7079M29.514 102.312C33.5626 105.64 38.3024 108.441 43.7629 110.519C49.2234 108.441 53.9632 105.64 58.0118 102.312M29.514 102.312C31.4144 110.839 31.394 113.794 29.514 116M58.0118 102.312C56.5715 108.417 55.5604 111.948 58.0118 116M8.32824 26.518C10.5557 22.0433 14.3237 18.2444 18.9867 15.298C20.9291 14.0706 29.5405 10.826 31.7469 9.90726M8.32824 26.518C8.32824 26.518 0.00417942 26.1201 2.44981 17.0322C4.89545 7.94435 17.1044 2.00002 25.2328 2C31.3733 1.99998 31.7469 9.90726 31.7469 9.90726M65.3762 104.13C72.1005 101.354 74.5835 96.5133 77.1795 90.0064M77.1795 90.0064L73.2451 91.5873M77.1795 90.0064L78.7745 93.8007M21.6721 104.13C14.9478 101.354 12.1458 96.5133 9.54985 90.0064M9.54985 90.0064L13.8033 91.5873M9.54985 90.0064L8.27382 93.8007" stroke="#2F7271" stroke-width="4"/>
</svg>

<svg width="85" height="118" fill="none" xmlns="http://www.w3.org/2000/svg"><path d="M12.127 73.103c-6.824-2.753-7.882-16.453-5.9-16.758m5.9 16.758a55.667 55.667 0 01-.98-16.758m.98 16.758c2.321 10.933 7.994 21.488 17.387 29.209M6.226 56.345s-1.595-7.377 0-22.66a20.872 20.872 0 012.102-7.167M6.226 56.345h4.921m67.494-29.827c-4.094-8.666-10.18-13.742-18.821-16.222-4.6-1.321-9.925-1.906-16.057-1.906-1.488 0-2.98.07-4.466.21m-28.15 47.745c1.607-16.92 11.16-31.627 27.193-34.335M11.147 56.345c4.174-6.326 7.588-6.578 14.086-7.694 6.499-1.116 13.107-7.167 13.107-7.167M39.297 8.6c-5.742 4.322-4.254 11.067-.957 13.41m.957-13.41a49.105 49.105 0 00-11.272 2.415c-.947.324 4.635-1.488 3.722-1.108M38.34 22.01a32.519 32.519 0 015.423-.446c17.684 0 28.852 13.464 31.965 30.144M43.763 14.08v3.373M80.13 29.996l1.276 3.057m.638 3.162v21.184m0 0c3.54 4.928-3.662 19.724-6.783 16.337m6.783-16.337h-5.576m-1.207 16.337a55.767 55.767 0 001.207-16.337m-1.207 16.337c-2.404 10.706-8.037 21.004-17.25 28.576m18.457-44.913a52.422 52.422 0 00-.74-5.691m-31.965-25.19c.464 2.091.636 3.755.56 5.165m-3.856 7.694c2.238-2.619 3.682-4.512 3.856-7.695m0 0c15.996 1.648 21.506 8.294 31.405 20.026m-46.214 50.604c4.049 3.328 8.788 6.129 14.249 8.207 5.46-2.078 10.2-4.879 14.249-8.207m-28.498 0c1.9 8.527 1.88 11.482 0 13.688m28.498-13.688c-1.44 6.105-2.452 9.636 0 13.688M8.328 26.518c2.228-4.475 5.996-8.274 10.659-11.22 1.942-1.227 10.554-4.472 12.76-5.39M8.328 26.517S.004 26.12 2.45 17.032C4.895 7.944 17.104 2 25.233 2c6.14 0 6.514 7.907 6.514 7.907m33.63 94.223c6.724-2.776 9.207-7.617 11.803-14.124m0 0l-3.935 1.581m3.934-1.58l1.596 3.794M21.672 104.13c-6.724-2.776-9.526-7.617-12.122-14.124m0 0l4.253 1.581m-4.253-1.58L8.274 93.8" stroke="#2F7271" stroke-width="4"/></svg>
